SVG/comment-o.svg

<?xml version="1.0" encoding="utf-8"?>
<!-- Generated by IcoMoon.io -->
<!DOCTYPE svg PUBLIC "-//W3C//DTD SVG 1.1//EN" "http://www.w3.org/Graphics/SVG/1.1/DTD/svg11.dtd">
<svg version="1.1" xmlns="http://www.w3.org/2000/svg" xmlns:xlink="http://www.w3.org/1999/xlink" width="14" height="14" viewBox="0 0 14 14">
<path fill="#444444" d="M7 3q-1.594 0-2.98 0.543t-2.203 1.465-0.816 1.992q0 0.875 0.559 1.668t1.574 1.371l0.68 0.391-0.211 0.75q-0.187 0.711-0.547 1.344 1.187-0.492 2.148-1.336l0.336-0.297 0.445 0.047q0.539 0.062 1.016 0.062 1.594 0 2.98-0.543t2.203-1.465 0.816-1.992-0.816-1.992-2.203-1.465-2.98-0.543zM14 7q0 1.359-0.937 2.512t-2.547 1.82-3.516 0.668q-0.547 0-1.133-0.062-1.547 1.367-3.594 1.891-0.383 0.109-0.891 0.172h-0.039q-0.117 0-0.211-0.082t-0.125-0.215v-0.008q-0.023-0.031-0.004-0.094t0.016-0.078 0.035-0.074l0.047-0.070t0.055-0.066 0.062-0.070q0.055-0.062 0.242-0.27t0.27-0.297 0.242-0.309 0.254-0.398 0.211-0.461 0.203-0.594q-1.227-0.695-1.934-1.719t-0.707-2.195q0-1.359 0.937-2.512t2.547-1.82 3.516-0.668 3.516 0.668 2.547 1.82 0.937 2.512z"></path>
</svg>

<svg xmlns="http://www.w3.org/2000/svg" viewBox="0 0 14 14"><path d="M7 3q-1.594 0-2.98.543T1.817 5.008 1 7q0 .875.56 1.668t1.574 1.37l.68.392-.21.75q-.188.71-.548 1.344 1.187-.492 2.148-1.336l.336-.297.445.048Q6.525 11 7 11q1.595 0 2.98-.543t2.204-1.465T13 7t-.816-1.992T9.98 3.543 7 3zm7 4q0 1.36-.937 2.512t-2.547 1.82T7 12q-.547 0-1.133-.062-1.547 1.367-3.594 1.89-.383.11-.89.173h-.04q-.117 0-.21-.08t-.126-.216v-.008q-.023-.03-.004-.094t.016-.078.034-.074l.047-.07.056-.066.062-.07q.055-.062.242-.27t.27-.297.242-.31.254-.397.21-.46.204-.595Q1.413 10.22.706 9.195T0 7.002q0-1.358.936-2.51t2.547-1.82T7 2t3.515.67 2.547 1.82T14 7z" /></svg>
